source/svgs/commercial_fan_grey.svg

<svg xmlns="http://www.w3.org/2000/svg" viewBox="0 0 7.8 3.5"><path fill="#5A6377" d="M7.8 3.5H0V.6C0 .2.2 0 .6 0h6.7c.3 0 .6.2.6.6l-.1 2.9z"/><circle fill="#F5F6F6" cx="2" cy="1.9" r="1.3"/><circle fill="#F5F6F6" cx="5.7" cy="1.9" r="1.3"/><path fill="#5A6377" d="M2.9 2.2l-.5-.3c0-.1-.1-.3-.2-.3V.8c0-.1-.1-.2-.1-.2s-.2.2-.2.3v.7c-.2 0-.3.2-.3.3l-.6.3v.3l.1.1h.1l.6-.3c.1 0 .1.1.2.1s.2 0 .2-.1l.6.3h.1s.1 0 .1-.1 0-.2-.1-.3zM6.7 2.2l-.6-.3c0-.1-.1-.3-.2-.3V.8c0-.1-.1-.2-.2-.2s-.1.2-.1.2v.7c-.1.1-.2.3-.2.4l-.6.3c-.1 0-.1.1-.1.2l.1.1h.1l.6-.3c.1 0 .1.1.2.1s.2 0 .2-.1l.6.3h.1c.1 0 .1 0 .1-.1.1 0 .1-.1 0-.2z"/></svg>

<?xml version="1.0" encoding="utf-8"?>
<!-- Generator: Adobe Illustrator 18.0.0, SVG Export Plug-In . SVG Version: 6.00 Build 0)  -->
<!DOCTYPE svg PUBLIC "-//W3C//DTD SVG 1.1//EN" "http://www.w3.org/Graphics/SVG/1.1/DTD/svg11.dtd">
<svg version="1.1" id="Layer_1" xmlns="http://www.w3.org/2000/svg" xmlns:xlink="http://www.w3.org/1999/xlink" x="0px" y="0px"
	 viewBox="0 0 7.8 3.5" enable-background="new 0 0 7.8 3.5" xml:space="preserve">
<path fill="#5A6377" d="M7.8,3.5H0V0.6C0,0.2,0.2,0,0.6,0h6.7c0.3,0,0.6,0.2,0.6,0.6L7.8,3.5L7.8,3.5z"/>
<circle fill="#F5F6F6" cx="2" cy="1.9" r="1.3"/>
<circle fill="#F5F6F6" cx="5.7" cy="1.9" r="1.3"/>
<path fill="#5A6377" d="M2.9,2.2L2.4,1.9c0,0,0,0,0,0c0-0.1-0.1-0.3-0.2-0.3V0.8c0-0.1-0.1-0.2-0.1-0.2S1.9,0.8,1.9,0.9v0.7
	C1.7,1.6,1.6,1.8,1.6,1.9c0,0,0,0,0,0L1,2.2C1,2.3,1,2.4,1,2.5c0,0,0.1,0.1,0.1,0.1c0,0,0,0,0.1,0l0.6-0.3c0.1,0,0.1,0.1,0.2,0.1
	c0.1,0,0.2,0,0.2-0.1l0.6,0.3c0,0,0,0,0.1,0c0,0,0.1,0,0.1-0.1C3,2.4,3,2.3,2.9,2.2z"/>
<path fill="#5A6377" d="M6.7,2.2L6.1,1.9c0,0,0,0,0,0c0-0.1-0.1-0.3-0.2-0.3V0.8c0-0.1-0.1-0.2-0.2-0.2S5.6,0.8,5.6,0.8v0.7
	C5.5,1.6,5.4,1.8,5.4,1.9c0,0,0,0,0,0L4.8,2.2c-0.1,0-0.1,0.1-0.1,0.2c0,0,0.1,0.1,0.1,0.1c0,0,0.1,0,0.1,0l0.6-0.3
	c0.1,0,0.1,0.1,0.2,0.1s0.2,0,0.2-0.1l0.6,0.3c0,0,0.1,0,0.1,0c0.1,0,0.1,0,0.1-0.1C6.8,2.4,6.8,2.3,6.7,2.2z"/>
</svg>
